wp-content/plugins/LayerSlider/assets/static/admin/svgs/duotone/rectangle-history.svg

<svg xmlns="http://www.w3.org/2000/svg" viewBox="0 0 512 512"><!--! Font Awesome Pro 6.1.1 by @fontawesome - https://fontawesome.com License - https://fontawesome.com/license (Commercial License) Copyright 2022 Fonticons, Inc. --><defs><style>.fa-secondary{opacity:.4}</style></defs><path class="fa-primary" d="M448 160C483.3 160 512 188.7 512 224V448C512 483.3 483.3 512 448 512H64C28.65 512 0 483.3 0 448V224C0 188.7 28.65 160 64 160H448z"/><path class="fa-secondary" d="M440 128H72C58.75 128 48 117.3 48 104C48 90.75 58.75 80 72 80H440C453.3 80 464 90.75 464 104C464 117.3 453.3 128 440 128zM392 48H120C106.7 48 96 37.25 96 24C96 10.75 106.7 0 120 0H392C405.3 0 416 10.75 416 24C416 37.25 405.3 48 392 48z"/></svg>

<svg viewBox="0 0 512 512" xmlns="http://www.w3.org/2000/svg"><path d="m448 160c35.3 0 64 28.7 64 64v224c0 35.3-28.7 64-64 64h-384c-35.35 0-64-28.7-64-64v-224c0-35.3 28.65-64 64-64z"/><path d="m440 128h-368c-13.25 0-24-10.7-24-24 0-13.25 10.75-24 24-24h368c13.3 0 24 10.75 24 24 0 13.3-10.7 24-24 24zm-48-80h-272c-13.3 0-24-10.75-24-24s10.7-24 24-24h272c13.3 0 24 10.75 24 24s-10.7 24-24 24z" opacity=".4"/></svg>
